X: 561
T: Da yengtao
L: 1/8
M: 2/4
K: A
c e f a [I:setbarnb 1]| 
e4 | 
f2c B | 
A BA2 | 
f2c B | 
A B c e | 
A4 | 
BB2c | 
e2e2 | 
B2c B | 
A FA2 | 
B2c2 | 
F B A F | 
E C E F | 
F EC2 | 
A4 |]

@@@ Tune index: 9435
